X:8
T:O'Reilly of Aithcairne
R:set dance
D:Snug in the Blanket,P.O'Brien,J.Gans,D.Sproule
C:O'Carolan
B:O'Carolan setting,in G minor without repeats
N:O'Reilly of Athcarne (O'Sullivan's spelling)
Z:Paul Stewart Cranford (P.S.C.), <http://www.cranfordpub.com>
L:1/8
Q:288
M:C
K:Ador
G|EAAB cBce|dcde g2eg|abae edcB|AGEF G2 AG|
EAAB cBce|dcde g2eg|abae d2 ed|B2 AG A3:|
|:e|gega gede|gage dAcd|ed e/f/g a2 ag|abag e3 d|
e=fed c2 AB|cedc B2 cB|ABce dcBc|AGEF G2 AG|
EAAB cBce|dcde g2eg|abae d2 ed|B2 AG A3:|
